web/icons/discord.svg

<svg width="96" height="96" viewBox="0 0 96 96" fill="none" xmlns="http://www.w3.org/2000/svg">
<path d="M81.4215 17.856C75.3665 15.0777 68.8735 13.0308 62.0846 11.8584C61.961 11.8358 61.8375 11.8924 61.7738 12.0054C60.9387 13.4907 60.0137 15.4283 59.366 16.9512C52.0641 15.858 44.7997 15.858 37.6475 16.9512C36.9996 15.3944 36.0411 13.4907 35.2023 12.0054C35.1386 11.8961 35.0151 11.8396 34.8915 11.8584C28.1063 13.027 21.6133 15.074 15.5545 17.856C15.5021 17.8786 15.4571 17.9163 15.4273 17.9653C3.11134 36.3651 -0.262511 54.3126 1.39259 72.0376C1.40008 72.1243 1.44876 72.2072 1.51616 72.2599C9.64187 78.2273 17.513 81.85 25.238 84.2512C25.3616 84.289 25.4926 84.2437 25.5713 84.1419C27.3986 81.6465 29.0275 79.0152 30.4242 76.2482C30.5066 76.0862 30.4279 75.8939 30.2595 75.8298C27.6757 74.8497 25.2155 73.6547 22.8489 72.2977C22.6617 72.1884 22.6468 71.9206 22.819 71.7924C23.317 71.4193 23.8151 71.031 24.2907 70.6389C24.3767 70.5673 24.4966 70.5522 24.5977 70.5974C40.1451 77.6958 56.9769 77.6958 72.3409 70.5974C72.442 70.5485 72.5619 70.5636 72.6517 70.6352C73.1273 71.0272 73.6254 71.4193 74.1271 71.7924C74.2993 71.9206 74.2881 72.1884 74.1009 72.2977C71.7343 73.6811 69.2741 74.8497 66.6866 75.8261C66.5182 75.8902 66.4432 76.0862 66.5257 76.2482C67.9523 79.0114 69.5812 81.6426 71.3748 84.1382C71.4497 84.2437 71.5845 84.289 71.7081 84.2512C79.4705 81.85 87.3416 78.2273 95.4673 72.2599C95.5385 72.2072 95.5835 72.128 95.591 72.0413C97.5718 51.5493 92.2732 33.7489 81.545 17.969C81.5188 17.9163 81.474 17.8786 81.4215 17.856ZM32.7459 61.2449C28.0651 61.2449 24.2082 56.9475 24.2082 51.67C24.2082 46.3924 27.9903 42.095 32.7459 42.095C37.5389 42.095 41.3584 46.4301 41.2835 51.67C41.2835 56.9475 37.5014 61.2449 32.7459 61.2449ZM64.3125 61.2449C59.6319 61.2449 55.775 56.9475 55.775 51.67C55.775 46.3924 59.5569 42.095 64.3125 42.095C69.1056 42.095 72.925 46.4301 72.8502 51.67C72.8502 56.9475 69.1056 61.2449 64.3125 61.2449Z" fill="#5865F2"/>
</svg>

<svg width="96" height="96" fill="none" xmlns="http://www.w3.org/2000/svg"><path d="M81.421 17.856a78.342 78.342 0 0 0-19.336-5.998.294.294 0 0 0-.311.147c-.835 1.486-1.76 3.423-2.408 4.946-7.302-1.093-14.566-1.093-21.718 0-.648-1.557-1.607-3.46-2.446-4.946a.305.305 0 0 0-.31-.147 78.125 78.125 0 0 0-19.338 5.998.276.276 0 0 0-.127.11C3.111 36.365-.263 54.312 1.393 72.037c.007.086.056.17.123.222 8.126 5.967 15.997 9.59 23.722 11.991a.307.307 0 0 0 .333-.11 56.317 56.317 0 0 0 4.853-7.893.3.3 0 0 0-.165-.418c-2.583-.98-5.044-2.175-7.41-3.532a.305.305 0 0 1-.03-.506c.498-.373.996-.761 1.472-1.153a.294.294 0 0 1 .307-.042c15.547 7.099 32.379 7.099 47.743 0a.293.293 0 0 1 .31.038c.476.392.974.784 1.476 1.157a.305.305 0 0 1-.026.506 48.686 48.686 0 0 1-7.414 3.528.303.303 0 0 0-.161.422 63.224 63.224 0 0 0 4.849 7.89c.075.106.21.151.333.113 7.763-2.401 15.634-6.024 23.76-11.991a.305.305 0 0 0 .123-.219c1.98-20.492-3.318-38.292-14.046-54.072a.241.241 0 0 0-.124-.113ZM32.746 61.245c-4.68 0-8.538-4.297-8.538-9.575s3.782-9.575 8.538-9.575c4.793 0 8.612 4.335 8.537 9.575 0 5.277-3.782 9.575-8.537 9.575Zm31.566 0c-4.68 0-8.537-4.297-8.537-9.575s3.782-9.575 8.538-9.575c4.793 0 8.612 4.335 8.537 9.575 0 5.277-3.744 9.575-8.537 9.575Z" fill="#5865F2"/></svg>
